icons/mail-volume-line.svg

<svg viewBox="0 0 24 24" fill="currentColor" xmlns="http://www.w3.org/2000/svg"><path d="M20 14.5V23.5L16.667 21H14V17H16.667L20 14.5ZM21 3C21.5523 3 22 3.44772 22 4V13H20V7.237L12.0718 14.338L4 7.215V19H12V21H3C2.44772 21 2 20.5523 2 20V4C2 3.44772 2.44772 3 3 3H21ZM21 17C22.1046 17 23 17.8954 23 19C23 20.0544 22.1841 20.9182 21.1493 20.9945L21 21V17ZM19.5 5H4.511L12.061 11.662L19.5 5Z"/></svg>

<svg xmlns="http://www.w3.org/2000/svg" viewBox="0 0 24 24">
    <g>
        <path fill="none" d="M0 0h24v24H0z"/>
        <path d="M20 14.5v9L16.667 21H14v-4h2.667L20 14.5zM21 3a1 1 0 0 1 1 1v9h-2V7.237l-7.928 7.101L4 7.215V19h8v2H3a1 1 0 0 1-1-1V4a1 1 0 0 1 1-1h18zm0 14a2 2 0 0 1 .15 3.995L21 21v-4zM19.5 5H4.511l7.55 6.662L19.5 5z"/>
    </g>
</svg>
